X:5
T:Wrong Foot Forward
C:Sarah Allen and Brian Finnegan
R:seven-eight
M:7/8
L:1/8
D:Haven, Flook
K:Bmin
B,2 DF Bcd | A2 ED CDE | DB,FD B,CD | CA,EC A,B,C |
B,2 DF Bcd | A2 ED CDE | D2 B,C DCA, |1 A2 ED CDE :|2 A2 ED CB,A, |:
DEGB e2d | GDBD dcA | B,CDF B2A | DEAE Bce |
EEGB e2d | GGBD dcA | B,CDF BcA | A2ED DEE :|
